X: 35114
T: Rolling Waves, The
R: jig
M: 6/8
K: Dmajor
|:F2E EDE|F2D DED|F2E EFA|d2e fdA|
F2E EDE|F2D DED|AFE EFA|~B3 d3:|
|:AB/c/d e2f|d2c ~B3|AB/c/d e2f|dcA B3|
AB/c/d ede|fdB BAF|AFE EFA|1 ~B3 d3:|2 B/c/de fdA||

